optimized/24/outline/matrix-input.svg

<svg viewBox="0 0 24 24" fill="none" xmlns="http://www.w3.org/2000/svg">
  <g clip-path="url(#clip0_2208_12297)">
    <path d="M3 6C3 4.34315 4.34315 3 6 3H18C19.6569 3 21 4.34315 21 6V18C21 19.6569 19.6569 21 18 21H6C4.34315 21 3 19.6569 3 18V6ZM6 4.5C5.17157 4.5 4.5 5.17157 4.5 6V8.25H8.25V4.5H6ZM9.75 8.25H19.5V6C19.5 5.17157 18.8284 4.5 18 4.5H9.75V8.25ZM4.5 9.75V14.25H8.25V9.75H4.5ZM4.5 15.75V18C4.5 18.8284 5.17157 19.5 6 19.5H8.25V15.75H4.5ZM9.75 15.75V19.5H18C18.8284 19.5 19.5 18.8284 19.5 18V15.75H9.75ZM19.5 14.25V9.75H9.75V14.25H19.5Z" fill="#333333"/>
  </g>
  <defs>
    <clipPath id="clip0_2208_12297">
      <rect width="24" height="24" fill="white"/>
    </clipPath>
  </defs>
</svg>

<svg xmlns="http://www.w3.org/2000/svg" width="24" height="24" fill="none">
  <g clip-path="url(#a)">
    <path fill="#333" d="M3 6a3 3 0 0 1 3-3h12a3 3 0 0 1 3 3v12a3 3 0 0 1-3 3H6a3 3 0 0 1-3-3V6Zm3-1.5A1.5 1.5 0 0 0 4.5 6v2.25h3.75V4.5H6Zm3.75 3.75h9.75V6A1.5 1.5 0 0 0 18 4.5H9.75v3.75ZM4.5 9.75v4.5h3.75v-4.5H4.5Zm0 6V18A1.5 1.5 0 0 0 6 19.5h2.25v-3.75H4.5Zm5.25 0v3.75H18a1.5 1.5 0 0 0 1.5-1.5v-2.25H9.75Zm9.75-1.5v-4.5H9.75v4.5h9.75Z"/>
  </g>
  <defs>
    <clipPath id="a">
      <path fill="#fff" d="M0 0h24v24H0z"/>
    </clipPath>
  </defs>
</svg>
